svg/300/outlined/keyboard_command_key-fill.svg

<svg xmlns="http://www.w3.org/2000/svg" width="48" height="48" viewBox="0 -960 960 960"><path d="M252.591-130.001q-50.821 0-86.706-35.985-35.884-35.986-35.884-86.808 0-50.821 35.956-86.706 35.956-35.884 86.736-35.884h77.308v-209.232h-77.308q-50.78 0-86.736-35.985-35.956-35.986-35.956-86.808 0-50.821 35.985-86.706 35.986-35.884 86.808-35.884 50.821 0 86.706 35.956 35.884 35.956 35.884 86.736v77.308h209.232v-77.308q0-50.78 35.985-86.736 35.986-35.956 86.808-35.956 50.821 0 86.706 35.985 35.884 35.986 35.884 86.808 0 50.821-35.956 86.706-35.956 35.884-86.736 35.884h-77.308v209.232h77.308q50.78 0 86.736 35.985 35.956 35.986 35.956 86.808 0 50.821-35.985 86.706-35.986 35.884-86.808 35.884-50.821 0-86.706-35.956-35.884-35.956-35.884-86.736v-77.308H375.384v77.308q0 50.78-35.985 86.736-35.986 35.956-86.808 35.956Zm-.016-45.383q32.195 0 54.81-22.532 22.616-22.533 22.616-54.777v-77.308h-77.308q-32.244 0-54.777 22.498-22.532 22.498-22.532 54.693 0 32.195 22.498 54.81 22.498 22.616 54.693 22.616Zm454.615 0q32.195 0 54.81-22.498 22.616-22.498 22.616-54.693 0-32.195-22.533-54.81-22.532-22.616-54.776-22.616h-77.308v77.308q0 32.244 22.498 54.777 22.498 22.532 54.693 22.532Zm-331.806-200h209.232v-209.232H375.384v209.232ZM252.693-629.999h77.308v-77.308q0-32.244-22.498-54.776-22.498-22.533-54.693-22.533-32.195 0-54.81 22.498-22.616 22.498-22.616 54.693 0 32.195 22.532 54.81 22.533 22.616 54.777 22.616Zm377.306 0h77.308q32.244 0 54.776-22.498 22.533-22.498 22.533-54.693 0-32.195-22.498-54.81-22.498-22.616-54.693-22.616-32.195 0-54.81 22.533-22.616 22.532-22.616 54.776v77.308Z"/></svg>

<svg xmlns="http://www.w3.org/2000/svg" width="48" height="48" viewBox="0 -960 960 960"><path d="M252.59-130q-50.82 0-86.7-35.99Q130-201.97 130-252.79q0-50.83 35.96-86.71 35.95-35.88 86.73-35.88H330v-209.24h-77.31q-50.78 0-86.73-35.98Q130-656.59 130-707.41t35.99-86.7Q201.97-830 252.79-830q50.83 0 86.71 35.96 35.88 35.95 35.88 86.73V-630h209.24v-77.31q0-50.78 35.98-86.73Q656.59-830 707.41-830t86.7 35.99Q830-758.03 830-707.21q0 50.83-35.96 86.71-35.95 35.88-86.73 35.88H630v209.24h77.31q50.78 0 86.73 35.98Q830-303.41 830-252.59t-35.99 86.7Q758.03-130 707.21-130q-50.83 0-86.71-35.96-35.88-35.95-35.88-86.73V-330H375.38v77.31q0 50.78-35.98 86.73Q303.41-130 252.59-130Zm-.02-45.38q32.2 0 54.82-22.54Q330-220.45 330-252.69V-330h-77.31q-32.24 0-54.77 22.5-22.54 22.5-22.54 54.69t22.5 54.81q22.5 22.62 54.69 22.62Zm454.62 0q32.19 0 54.81-22.5 22.62-22.5 22.62-54.69 0-32.2-22.54-54.82Q739.55-330 707.31-330H630v77.31q0 32.24 22.5 54.77 22.5 22.54 54.69 22.54Zm-331.81-200h209.24v-209.24H375.38v209.24ZM252.69-630H330v-77.31q0-32.24-22.5-54.77-22.5-22.54-54.69-22.54T198-762.12q-22.62 22.5-22.62 54.69 0 32.2 22.54 54.82Q220.45-630 252.69-630ZM630-630h77.31q32.24 0 54.77-22.5 22.54-22.5 22.54-54.69T762.12-762q-22.5-22.62-54.69-22.62-32.2 0-54.82 22.54Q630-739.55 630-707.31V-630Z"/></svg>
